ui/StatusQ/src/assets/img/icons/caret.svg

<svg fill="none" height="7" viewBox="0 0 12 7" width="12" xmlns="http://www.w3.org/2000/svg"><path clip-rule="evenodd" d="m.46967.46967c.292893-.292893.76777-.292893 1.06066 0l4.11612 4.11612c.19526.19526.51184.19526.7071 0l4.11615-4.11612c.2929-.292893.7677-.292893 1.0606 0s.2929.76777 0 1.06066l-4.64642 4.64645c-.48815.48815-1.27961.48815-1.76776 0l-4.64645-4.64645c-.292893-.29289-.292893-.767767 0-1.06066z" fill="#fff" fill-rule="evenodd"/></svg>

<svg width="12" height="7" viewBox="0 0 12 7" fill="none" xmlns="http://www.w3.org/2000/svg">
<path fill-rule="evenodd" clip-rule="evenodd" d="M0.46967 0.46967C0.762563 0.176777 1.23744 0.176777 1.53033 0.46967L5.64645 4.58579C5.84171 4.78105 6.15829 4.78105 6.35355 4.58579L10.4697 0.46967C10.7626 0.176777 11.2374 0.176777 11.5303 0.46967C11.8232 0.762563 11.8232 1.23744 11.5303 1.53033L6.88388 6.17678C6.39573 6.66493 5.60427 6.66493 5.11612 6.17678L0.46967 1.53033C0.176777 1.23744 0.176777 0.762563 0.46967 0.46967Z" fill="white"/>
</svg>
